!!!OTL@@FUR: Orar&agrave; la m&ecirc; gjalino
!!!OTL@IT: Ahim&egrave;, la mia gallina
!!!OTL@EN: Alas, my hen
**kern
*clefG2
*k[f#]
*G:
*M2/4
*MM60
*>[A]
*>A
8.d
16d
=1
4.d
8f#
8a
8cc
=2
8b
8dd
8.g
16g
8.b
16g
=3
4d
8d
8d
8e
8f#
=4
2g
8.d
16d
=5
4d
8d
8f#
8a
8cc
=6
8b
8dd
4g
8.b
16g
=7
4d
8d
8d
8e
8f#
=8
2g
8.d
16d
=9
4.d
8f#
8a
8cc
=10
8b
8dd
8.g
16g
8.b
16g
=11
4d
8d
8d
8e
8f#
=12
2g
8.d
16d
=13
4.d
8f#
8a
8cc
=14
8b
8dd
8.g
16g
8.b
16g
=15
4d
8d
8d
8e
8f#
=
2g
==
*-
!!!ARE: Friuli
!!!ENC: Kelly Leistikow
!!!END: 2002/03/07
!!!ref: @{OTL@@FUR}/@{OTL@EN}
